icon-themes/sifr_svg/cmd/sc_helplinesuse.svg

<svg viewBox="0 0 16 16" xmlns="http://www.w3.org/2000/svg"><path d="m1 1v2h2v-2zm5 0v2h2v-2zm3 0v2h3a2 2 0 0 1 2 2 2 2 0 0 1 -2 2h-3v2h3a4 4 0 0 0 4-4 4 4 0 0 0 -4-4zm-8 4v2h2v-2zm5 2v2h2v-2zm-5 2v2h2v-2zm0 4v2h2v-2zm4 0v2h2v-2zm4 0v2h2v-2zm4 0v2h2v-2z" fill="#555753"/></svg>

<svg xmlns="http://www.w3.org/2000/svg" viewBox="0 0 16 16">
  <path
     style="fill:#555753"
     d="M 1 1 L 1 3 L 3 3 L 3 1 L 1 1 z M 6 1 L 6 3 L 8 3 L 8 1 L 6 1 z M 9 1 L 9 3 L 12 3 A 2 2 0 0 1 14 5 A 2 2 0 0 1 12 7 L 9 7 L 9 9 L 12 9 A 4 4 0 0 0 16 5 A 4 4 0 0 0 12 1 L 9 1 z M 1 5 L 1 7 L 3 7 L 3 5 L 1 5 z M 6 7 L 6 9 L 8 9 L 8 7 L 6 7 z M 1 9 L 1 11 L 3 11 L 3 9 L 1 9 z M 1 13 L 1 15 L 3 15 L 3 13 L 1 13 z M 5 13 L 5 15 L 7 15 L 7 13 L 5 13 z M 9 13 L 9 15 L 11 15 L 11 13 L 9 13 z M 13 13 L 13 15 L 15 15 L 15 13 L 13 13 z "
     />
</svg>
